bernoullicharts/sqrt_x__mean.svg

<?xml version="1.0" encoding="utf-8" standalone="no"?>
<!DOCTYPE svg PUBLIC "-//W3C//DTD SVG 1.1//EN"
  "http://www.w3.org/Graphics/SVG/1.1/DTD/svg11.dtd">
<!-- Created with matplotlib (https://matplotlib.org/) -->
<svg height="345.6pt" version="1.1" viewBox="0 0 460.8 345.6" width="460.8pt" xmlns="http://www.w3.org/2000/svg" xmlns:xlink="http://www.w3.org/1999/xlink">
 <defs>
  <style type="text/css">
*{stroke-linecap:butt;stroke-linejoin:round;}
  </style>
 </defs>
 <g id="figure_1">
  <g id="patch_1">
   <path d="M 0 345.6 
L 460.8 345.6 
L 460.8 0 
L 0 0 
z
" style="fill:#ffffff;"/>
  </g>
  <g id="axes_1">
   <g id="patch_2">
    <path d="M 57.6 307.584 
L 414.72 307.584 
L 414.72 41.472 
L 57.6 41.472 
z
" style="fill:#ffffff;"/>
   </g>
   <g id="matplotlib.axis_1">
    <g id="xtick_1">
     <g id="line2d_1">
      <defs>
       <path d="M 0 0 
L 0 3.5 
" id="m49dd7ad0d6" style="stroke:#000000;stroke-width:0.8;"/>
      </defs>
      <g>
       <use style="stroke:#000000;stroke-width:0.8;" x="73.800255" xlink:href="#m49dd7ad0d6" y="307.584"/>
      </g>
     </g>
     <g id="text_1">
      <text style="font-family:DejaVu Sans;font-size:10px;font-style:normal;font-weight:normal;text-anchor:middle;" transform="rotate(-0, 73.800255, 322.182437)" x="73.800255" y="322.182437">0.0</text>
     </g>
    </g>
    <g id="xtick_2">
     <g id="line2d_2">
      <g>
       <use style="stroke:#000000;stroke-width:0.8;" x="138.744153" xlink:href="#m49dd7ad0d6" y="307.584"/>
      </g>
     </g>
     <g id="text_2">
      <text style="font-family:DejaVu Sans;font-size:10px;font-style:normal;font-weight:normal;text-anchor:middle;" transform="rotate(-0, 138.744153, 322.182437)" x="138.744153" y="322.182437">0.2</text>
     </g>
    </g>
    <g id="xtick_3">
     <g id="line2d_3">
      <g>
       <use style="stroke:#000000;stroke-width:0.8;" x="203.688051" xlink:href="#m49dd7ad0d6" y="307.584"/>
      </g>
     </g>
     <g id="text_3">
      <text style="font-family:DejaVu Sans;font-size:10px;font-style:normal;font-weight:normal;text-anchor:middle;" transform="rotate(-0, 203.688051, 322.182437)" x="203.688051" y="322.182437">0.4</text>
     </g>
    </g>
    <g id="xtick_4">
     <g id="line2d_4">
      <g>
       <use style="stroke:#000000;stroke-width:0.8;" x="268.631949" xlink:href="#m49dd7ad0d6" y="307.584"/>
      </g>
     </g>
     <g id="text_4">
      <text style="font-family:DejaVu Sans;font-size:10px;font-style:normal;font-weight:normal;text-anchor:middle;" transform="rotate(-0, 268.631949, 322.182437)" x="268.631949" y="322.182437">0.6</text>
     </g>
    </g>
    <g id="xtick_5">
     <g id="line2d_5">
      <g>
       <use style="stroke:#000000;stroke-width:0.8;" x="333.575847" xlink:href="#m49dd7ad0d6" y="307.584"/>
      </g>
     </g>
     <g id="text_5">
      <text style="font-family:DejaVu Sans;font-size:10px;font-style:normal;font-weight:normal;text-anchor:middle;" transform="rotate(-0, 333.575847, 322.182437)" x="333.575847" y="322.182437">0.8</text>
     </g>
    </g>
    <g id="xtick_6">
     <g id="line2d_6">
      <g>
       <use style="stroke:#000000;stroke-width:0.8;" x="398.519745" xlink:href="#m49dd7ad0d6" y="307.584"/>
      </g>
     </g>
     <g id="text_6">
      <text style="font-family:DejaVu Sans;font-size:10px;font-style:normal;font-weight:normal;text-anchor:middle;" transform="rotate(-0, 398.519745, 322.182437)" x="398.519745" y="322.182437">1.0</text>
     </g>
    </g>
    <g id="text_7">
     <text style="font-family:DejaVu Sans;font-size:10px;font-style:normal;font-weight:normal;text-anchor:middle;" transform="rotate(-0, 236.16, 335.860562)" x="236.16" y="335.860562">Input Coin's Heads Probability (λ)</text>
    </g>
   </g>
   <g id="matplotlib.axis_2">
    <g id="ytick_1">
     <g id="line2d_7">
      <defs>
       <path d="M 0 0 
L -3.5 0 
" id="m6804890ba2" style="stroke:#000000;stroke-width:0.8;"/>
      </defs>
      <g>
       <use style="stroke:#000000;stroke-width:0.8;" x="57.6" xlink:href="#m6804890ba2" y="295.97281"/>
      </g>
     </g>
     <g id="text_8">
      <text style="font-family:DejaVu Sans;font-size:10px;font-style:normal;font-weight:normal;text-anchor:end;" transform="rotate(-0, 50.6, 299.772028)" x="50.6" y="299.772028">0.0</text>
     </g>
    </g>
    <g id="ytick_2">
     <g id="line2d_8">
      <g>
       <use style="stroke:#000000;stroke-width:0.8;" x="57.6" xlink:href="#m6804890ba2" y="247.491848"/>
      </g>
     </g>
     <g id="text_9">
      <text style="font-family:DejaVu Sans;font-size:10px;font-style:normal;font-weight:normal;text-anchor:end;" transform="rotate(-0, 50.6, 251.291066)" x="50.6" y="251.291066">0.2</text>
     </g>
    </g>
    <g id="ytick_3">
     <g id="line2d_9">
      <g>
       <use style="stroke:#000000;stroke-width:0.8;" x="57.6" xlink:href="#m6804890ba2" y="199.010886"/>
      </g>
     </g>
     <g id="text_10">
      <text style="font-family:DejaVu Sans;font-size:10px;font-style:normal;font-weight:normal;text-anchor:end;" transform="rotate(-0, 50.6, 202.810105)" x="50.6" y="202.810105">0.4</text>
     </g>
    </g>
    <g id="ytick_4">
     <g id="line2d_10">
      <g>
       <use style="stroke:#000000;stroke-width:0.8;" x="57.6" xlink:href="#m6804890ba2" y="150.529924"/>
      </g>
     </g>
     <g id="text_11">
      <text style="font-family:DejaVu Sans;font-size:10px;font-style:normal;font-weight:normal;text-anchor:end;" transform="rotate(-0, 50.6, 154.329143)" x="50.6" y="154.329143">0.6</text>
     </g>
    </g>
    <g id="ytick_5">
     <g id="line2d_11">
      <g>
       <use style="stroke:#000000;stroke-width:0.8;" x="57.6" xlink:href="#m6804890ba2" y="102.048962"/>
      </g>
     </g>
     <g id="text_12">
      <text style="font-family:DejaVu Sans;font-size:10px;font-style:normal;font-weight:normal;text-anchor:end;" transform="rotate(-0, 50.6, 105.848181)" x="50.6" y="105.848181">0.8</text>
     </g>
    </g>
    <g id="ytick_6">
     <g id="line2d_12">
      <g>
       <use style="stroke:#000000;stroke-width:0.8;" x="57.6" xlink:href="#m6804890ba2" y="53.568"/>
      </g>
     </g>
     <g id="text_13">
      <text style="font-family:DejaVu Sans;font-size:10px;font-style:normal;font-weight:normal;text-anchor:end;" transform="rotate(-0, 50.6, 57.367219)" x="50.6" y="57.367219">1.0</text>
     </g>
    </g>
    <g id="text_14">
     <text style="font-family:DejaVu Sans;font-size:10px;font-style:normal;font-weight:normal;text-anchor:middle;" transform="rotate(-90, 28.617187, 174.528)" x="28.617187" y="174.528">Simulated Mean / Function Value</text>
    </g>
   </g>
   <g id="line2d_13">
    <path clip-path="url(#p448324963e)" d="M 73.832727 293.548762 
L 77.112066 271.492336 
L 80.391405 261.437159 
L 83.670744 253.710193 
L 86.950083 247.192216 
L 90.229421 241.447917 
L 93.50876 236.253621 
L 96.788099 231.476306 
L 100.067438 227.029234 
L 103.346777 222.852127 
L 106.626116 218.901079 
L 109.905455 215.142931 
L 113.184793 211.551918 
L 116.464132 208.107547 
L 119.743471 204.793196 
L 123.02281 201.595166 
L 126.302149 198.502008 
L 129.581488 195.504035 
L 132.860826 192.592965 
L 136.140165 189.761653 
L 139.419504 187.003881 
L 142.698843 184.3142 
L 145.978182 181.687804 
L 149.257521 179.120423 
L 152.53686 176.608251 
L 155.816198 174.147872 
L 159.095537 171.736209 
L 162.374876 169.370478 
L 165.654215 167.048149 
L 168.933554 164.766919 
L 172.212893 162.52468 
L 175.492231 160.319499 
L 178.77157 158.149596 
L 182.050909 156.01333 
L 185.330248 153.909185 
L 188.609587 151.835753 
L 191.888926 149.791728 
L 195.168264 147.775893 
L 198.447603 145.787112 
L 201.726942 143.824325 
L 205.006281 141.886539 
L 208.28562 139.972821 
L 211.564959 138.082297 
L 214.844298 136.214143 
L 218.123636 134.367583 
L 221.402975 132.541886 
L 224.682314 130.73636 
L 227.961653 128.95035 
L 231.240992 127.183238 
L 234.520331 125.434435 
L 237.799669 123.703385 
L 241.079008 121.989557 
L 244.358347 120.292447 
L 247.637686 118.611576 
L 250.917025 116.946485 
L 254.196364 115.296739 
L 257.475702 113.661921 
L 260.755041 112.041633 
L 264.03438 110.435495 
L 267.313719 108.843141 
L 270.593058 107.264224 
L 273.872397 105.698408 
L 277.151736 104.145373 
L 280.431074 102.60481 
L 283.710413 101.076425 
L 286.989752 99.559933 
L 290.269091 98.055059 
L 293.54843 96.561543 
L 296.827769 95.079129 
L 300.107107 93.607574 
L 303.386446 92.146643 
L 306.665785 90.696109 
L 309.945124 89.255754 
L 313.224463 87.825365 
L 316.503802 86.404739 
L 319.78314 84.993678 
L 323.062479 83.591992 
L 326.341818 82.199497 
L 329.621157 80.816014 
L 332.900496 79.44137 
L 336.179835 78.075398 
L 339.459174 76.717936 
L 342.738512 75.368827 
L 346.017851 74.027919 
L 349.29719 72.695063 
L 352.576529 71.370117 
L 355.855868 70.05294 
L 359.135207 68.743399 
L 362.414545 67.441362 
L 365.693884 66.146701 
L 368.973223 64.859293 
L 372.252562 63.579016 
L 375.531901 62.305754 
L 378.81124 61.039393 
L 382.090579 59.779821 
L 385.369917 58.526931 
L 388.649256 57.280617 
L 391.928595 56.040776 
L 395.207934 54.80731 
L 398.487273 53.580121 
" style="fill:none;stroke:#1f77b4;stroke-linecap:square;stroke-width:1.5;"/>
   </g>
   <g id="line2d_14">
    <path clip-path="url(#p448324963e)" d="M 73.832727 295.488 
L 77.112066 269.308281 
L 80.391405 265.429804 
L 83.670744 249.915896 
L 86.950083 249.915896 
L 90.229421 250.885515 
L 93.50876 232.947559 
L 96.788099 223.736176 
L 100.067438 225.190605 
L 103.346777 217.918461 
L 106.626116 206.76784 
L 109.905455 223.251367 
L 113.184793 212.585555 
L 116.464132 205.313411 
L 119.743471 209.676697 
L 123.02281 200.950124 
L 126.302149 194.16279 
L 129.581488 201.919743 
L 132.860826 193.19317 
L 136.140165 186.405836 
L 139.419504 183.012168 
L 142.698843 178.164072 
L 145.978182 182.527359 
L 149.257521 175.255214 
L 152.53686 173.800786 
L 155.816198 180.58812 
L 159.095537 169.437499 
L 162.374876 176.709643 
L 165.654215 165.559022 
L 168.933554 158.286878 
L 172.212893 169.437499 
L 175.492231 150.529924 
L 178.77157 159.741307 
L 182.050909 162.650164 
L 185.330248 153.923591 
L 188.609587 144.227399 
L 191.888926 150.045114 
L 195.168264 146.166637 
L 198.447603 150.045114 
L 201.726942 157.317259 
L 205.006281 141.803351 
L 208.28562 141.803351 
L 211.564959 146.651447 
L 214.844298 136.955255 
L 218.123636 136.955255 
L 221.402975 135.500826 
L 224.682314 130.652729 
L 227.961653 133.076778 
L 231.240992 129.198301 
L 234.520331 116.593251 
L 237.799669 122.410966 
L 241.079008 121.926156 
L 244.358347 129.68311 
L 247.637686 120.956537 
L 250.917025 113.684393 
L 254.196364 121.926156 
L 257.475702 118.532489 
L 260.755041 109.805916 
L 264.03438 109.321106 
L 267.313719 105.442629 
L 270.593058 102.048962 
L 273.872397 96.231246 
L 277.151736 105.442629 
L 280.431074 99.140104 
L 283.710413 103.018581 
L 286.989752 107.866677 
L 290.269091 91.86796 
L 293.54843 101.079343 
L 296.827769 100.109723 
L 300.107107 98.170485 
L 303.386446 91.38315 
L 306.665785 91.86796 
L 309.945124 89.443912 
L 313.224463 88.959102 
L 316.503802 81.686958 
L 319.78314 78.7781 
L 323.062479 84.111006 
L 326.341818 82.656577 
L 329.621157 77.323671 
L 332.900496 81.686958 
L 336.179835 78.293291 
L 339.459174 75.869242 
L 342.738512 81.202148 
L 346.017851 72.475575 
L 349.29719 71.990766 
L 352.576529 71.505956 
L 355.855868 70.051527 
L 359.135207 69.081908 
L 362.414545 63.749002 
L 365.693884 67.627479 
L 368.973223 67.142669 
L 372.252562 67.627479 
L 375.531901 62.779383 
L 378.81124 66.65786 
L 382.090579 57.446477 
L 385.369917 60.355335 
L 388.649256 57.446477 
L 391.928595 55.992048 
L 395.207934 54.537619 
L 398.487273 53.568 
" style="fill:none;stroke:#ff7f0e;stroke-linecap:square;stroke-width:1.5;"/>
   </g>
   <g id="patch_3">
    <path d="M 57.6 307.584 
L 57.6 41.472 
" style="fill:none;stroke:#000000;stroke-linecap:square;stroke-linejoin:miter;stroke-width:0.8;"/>
   </g>
   <g id="patch_4">
    <path d="M 414.72 307.584 
L 414.72 41.472 
" style="fill:none;stroke:#000000;stroke-linecap:square;stroke-linejoin:miter;stroke-width:0.8;"/>
   </g>
   <g id="patch_5">
    <path d="M 57.6 307.584 
L 414.72 307.584 
" style="fill:none;stroke:#000000;stroke-linecap:square;stroke-linejoin:miter;stroke-width:0.8;"/>
   </g>
   <g id="patch_6">
    <path d="M 57.6 41.472 
L 414.72 41.472 
" style="fill:none;stroke:#000000;stroke-linecap:square;stroke-linejoin:miter;stroke-width:0.8;"/>
   </g>
   <g id="text_15">
    <text style="font-family:DejaVu Sans;font-size:12px;font-style:normal;font-weight:normal;text-anchor:middle;" transform="rotate(-0, 236.16, 35.472)" x="236.16" y="35.472">Expected Value in sqrt(x) Algorithm</text>
   </g>
   <g id="legend_1">
    <g id="patch_7">
     <path d="M 64.6 78.82825 
L 226.864062 78.82825 
Q 228.864062 78.82825 228.864062 76.82825 
L 228.864062 48.472 
Q 228.864062 46.472 226.864062 46.472 
L 64.6 46.472 
Q 62.6 46.472 62.6 48.472 
L 62.6 76.82825 
Q 62.6 78.82825 64.6 78.82825 
z
" style="fill:#ffffff;opacity:0.8;stroke:#cccccc;stroke-linejoin:miter;"/>
    </g>
    <g id="line2d_15">
     <path d="M 66.6 54.570437 
L 86.6 54.570437 
" style="fill:none;stroke:#1f77b4;stroke-linecap:square;stroke-width:1.5;"/>
    </g>
    <g id="line2d_16"/>
    <g id="text_16">
     <text style="font-family:DejaVu Sans;font-size:10px;font-style:normal;font-weight:normal;text-anchor:start;" transform="rotate(-0, 94.6, 58.070437)" x="94.6" y="58.070437">sqrt(x)</text>
    </g>
    <g id="line2d_17">
     <path d="M 66.6 69.248562 
L 86.6 69.248562 
" style="fill:none;stroke:#ff7f0e;stroke-linecap:square;stroke-width:1.5;"/>
    </g>
    <g id="line2d_18"/>
    <g id="text_17">
     <text style="font-family:DejaVu Sans;font-size:10px;font-style:normal;font-weight:normal;text-anchor:start;" transform="rotate(-0, 94.6, 72.748562)" x="94.6" y="72.748562">Simulated Mean of sqrt(x)</text>
    </g>
   </g>
  </g>
 </g>
 <defs>
  <clipPath id="p448324963e">
   <rect height="266.112" width="357.12" x="57.6" y="41.472"/>
  </clipPath>
 </defs>
</svg>

<svg height="460.8" viewBox="0 0 460.8 345.6" width="614.4" xmlns="http://www.w3.org/2000/svg" xmlns:xlink="http://www.w3.org/1999/xlink"><defs><style>*{stroke-linecap:butt;stroke-linejoin:round}</style></defs><g id="figure_1"><path d="M0 345.6h460.8V0H0z" fill="#fff" id="patch_1"/><g id="axes_1"><path d="M57.6 307.584h357.12V41.472H57.6z" fill="#fff" id="patch_2"/><g id="matplotlib.axis_1"><g id="xtick_1"><g id="line2d_1"><defs><path d="M0 0v3.5" id="m49dd7ad0d6" stroke="#000" stroke-width=".8"/></defs><use x="73.8" xlink:href="#m49dd7ad0d6" y="307.584" stroke="#000" stroke-width=".8"/></g><text x="73.8" y="322.182" font-family="DejaVu Sans" font-size="10" font-weight="400" text-anchor="middle" id="text_1">0.0</text></g><g id="xtick_2"><use x="138.744" xlink:href="#m49dd7ad0d6" y="307.584" stroke="#000" stroke-width=".8" id="line2d_2"/><text x="138.744" y="322.182" font-family="DejaVu Sans" font-size="10" font-weight="400" text-anchor="middle" id="text_2">0.2</text></g><g id="xtick_3"><use x="203.688" xlink:href="#m49dd7ad0d6" y="307.584" stroke="#000" stroke-width=".8" id="line2d_3"/><text x="203.688" y="322.182" font-family="DejaVu Sans" font-size="10" font-weight="400" text-anchor="middle" id="text_3">0.4</text></g><g id="xtick_4"><use x="268.632" xlink:href="#m49dd7ad0d6" y="307.584" stroke="#000" stroke-width=".8" id="line2d_4"/><text x="268.632" y="322.182" font-family="DejaVu Sans" font-size="10" font-weight="400" text-anchor="middle" id="text_4">0.6</text></g><g id="xtick_5"><use x="333.576" xlink:href="#m49dd7ad0d6" y="307.584" stroke="#000" stroke-width=".8" id="line2d_5"/><text x="333.576" y="322.182" font-family="DejaVu Sans" font-size="10" font-weight="400" text-anchor="middle" id="text_5">0.8</text></g><g id="xtick_6"><use x="398.52" xlink:href="#m49dd7ad0d6" y="307.584" stroke="#000" stroke-width=".8" id="line2d_6"/><text x="398.52" y="322.182" font-family="DejaVu Sans" font-size="10" font-weight="400" text-anchor="middle" id="text_6">1.0</text></g><text x="236.16" y="335.861" font-family="DejaVu Sans" font-size="10" font-weight="400" text-anchor="middle" id="text_7">Input Coin&apos;s Heads Probability (λ)</text></g><g id="matplotlib.axis_2"><g id="ytick_1"><g id="line2d_7"><defs><path d="M0 0h-3.5" id="m6804890ba2" stroke="#000" stroke-width=".8"/></defs><use x="57.6" xlink:href="#m6804890ba2" y="295.973" stroke="#000" stroke-width=".8"/></g><text x="50.6" y="299.772" font-family="DejaVu Sans" font-size="10" font-weight="400" text-anchor="end" id="text_8">0.0</text></g><g id="ytick_2"><use x="57.6" xlink:href="#m6804890ba2" y="247.492" stroke="#000" stroke-width=".8" id="line2d_8"/><text x="50.6" y="251.291" font-family="DejaVu Sans" font-size="10" font-weight="400" text-anchor="end" id="text_9">0.2</text></g><g id="ytick_3"><use x="57.6" xlink:href="#m6804890ba2" y="199.011" stroke="#000" stroke-width=".8" id="line2d_9"/><text x="50.6" y="202.81" font-family="DejaVu Sans" font-size="10" font-weight="400" text-anchor="end" id="text_10">0.4</text></g><g id="ytick_4"><use x="57.6" xlink:href="#m6804890ba2" y="150.53" stroke="#000" stroke-width=".8" id="line2d_10"/><text x="50.6" y="154.329" font-family="DejaVu Sans" font-size="10" font-weight="400" text-anchor="end" id="text_11">0.6</text></g><g id="ytick_5"><use x="57.6" xlink:href="#m6804890ba2" y="102.049" stroke="#000" stroke-width=".8" id="line2d_11"/><text x="50.6" y="105.848" font-family="DejaVu Sans" font-size="10" font-weight="400" text-anchor="end" id="text_12">0.8</text></g><g id="ytick_6"><use x="57.6" xlink:href="#m6804890ba2" y="53.568" stroke="#000" stroke-width=".8" id="line2d_12"/><text x="50.6" y="57.367" font-family="DejaVu Sans" font-size="10" font-weight="400" text-anchor="end" id="text_13">1.0</text></g><text transform="rotate(-90 28.617 174.528)" x="28.617" y="174.528" font-family="DejaVu Sans" font-size="10" font-weight="400" text-anchor="middle" id="text_14">Simulated Mean / Function Value</text></g><path clip-path="url(#p448324963e)" d="M73.833 293.549l3.28-22.057 3.278-10.055 3.28-7.727 3.28-6.518 3.278-5.744 3.28-5.194 3.28-4.778 3.278-4.447 3.28-4.177 3.28-3.95 3.278-3.76 3.28-3.59 3.28-3.444 3.278-3.315 3.28-3.198 3.28-3.093 3.278-2.998 3.28-2.911 3.28-2.831 3.279-2.758 3.279-2.69 3.28-2.626 3.279-2.568 3.279-2.512 3.28-2.46 3.279-2.412 3.279-2.366 3.28-2.322 3.279-2.281 3.279-2.242 3.28-2.206 3.279-2.17 3.279-2.136 3.28-2.104 3.279-2.073 3.279-2.044 3.28-2.016 3.279-1.989 3.279-1.963 3.28-1.937 3.279-1.914 3.279-1.89 3.28-1.869 3.279-1.846 3.279-1.826 3.28-1.806 3.279-1.786 3.279-1.767 3.28-1.749 3.279-1.73 3.279-1.714 3.28-1.698 3.279-1.68 3.279-1.666 3.28-1.65 3.279-1.634 3.279-1.62 3.28-1.607 3.279-1.592 3.28-1.579 3.278-1.566 3.28-1.553 3.28-1.54 3.278-1.529 3.28-1.516 3.28-1.505 3.278-1.493 3.28-1.483 3.28-1.471 3.278-1.461 3.28-1.45 3.28-1.441 3.278-1.43 3.28-1.421 3.28-1.411 3.278-1.402 3.28-1.393 3.28-1.383 3.278-1.375 3.28-1.366 3.28-1.357 3.279-1.35 3.279-1.34 3.28-1.333 3.279-1.325 3.279-1.317 3.28-1.31 3.279-1.302 3.279-1.294 3.28-1.288 3.279-1.28 3.279-1.273 3.28-1.267 3.279-1.26 3.279-1.252 3.28-1.246 3.279-1.24 3.279-1.234 3.28-1.227" fill="none" stroke="#1f77b4" stroke-linecap="square" stroke-width="1.5" id="line2d_13"/><path clip-path="url(#p448324963e)" d="M73.833 295.488l3.28-26.18 3.278-3.878 3.28-15.514h3.28l3.278.97 3.28-17.938 3.28-9.212 3.278 1.455 3.28-7.273 3.28-11.15 3.278 16.483 3.28-10.665 3.28-7.273 3.278 4.364 3.28-8.727 3.28-6.787 3.278 7.757 3.28-8.727 3.28-6.787 3.279-3.394 3.279-4.848 3.28 4.363 3.279-7.272 3.279-1.454 3.28 6.787 3.279-11.15 3.279 7.272 3.28-11.151 3.279-7.272 3.279 11.15 3.28-18.907 3.279 9.211 3.279 2.91 3.28-8.727 3.279-9.697 3.279 5.818 3.28-3.878 3.279 3.878 3.279 7.272 3.28-15.514h3.279l3.279 4.848 3.28-9.696h3.279l3.279-1.454 3.28-4.848 3.279 2.424 3.279-3.879 3.28-12.605 3.279 5.818 3.279-.485 3.28 7.757 3.279-8.726 3.279-7.273 3.28 8.242 3.279-3.394 3.279-8.726 3.28-.485 3.279-3.878 3.28-3.394 3.278-5.818 3.28 9.212 3.28-6.303 3.278 3.879 3.28 4.848 3.28-15.999 3.278 9.211 3.28-.97 3.28-1.939 3.278-6.787 3.28.485 3.28-2.424 3.278-.485 3.28-7.272 3.28-2.909 3.278 5.333 3.28-1.454 3.28-5.333 3.278 4.363 3.28-3.394 3.28-2.424 3.279 5.333 3.279-8.726 3.28-.485 3.279-.485 3.279-1.454 3.28-.97 3.279-5.333 3.279 3.878 3.28-.484 3.279.484 3.279-4.848 3.28 3.879 3.279-9.212 3.279 2.91 3.28-2.91 3.279-1.454 3.279-1.454 3.28-.97" fill="none" stroke="#ff7f0e" stroke-linecap="square" stroke-width="1.5" id="line2d_14"/><path d="M57.6 307.584V41.472" fill="none" stroke="#000" stroke-linecap="square" stroke-width=".8" id="patch_3"/><path d="M414.72 307.584V41.472" fill="none" stroke="#000" stroke-linecap="square" stroke-width=".8" id="patch_4"/><path d="M57.6 307.584h357.12" fill="none" stroke="#000" stroke-linecap="square" stroke-width=".8" id="patch_5"/><path d="M57.6 41.472h357.12" fill="none" stroke="#000" stroke-linecap="square" stroke-width=".8" id="patch_6"/><text x="236.16" y="35.472" font-family="DejaVu Sans" font-size="12" font-weight="400" text-anchor="middle" id="text_15">Expected Value in sqrt(x) Algorithm</text><g id="legend_1"><path d="M64.6 78.828h162.264q2 0 2-2V48.472q0-2-2-2H64.6q-2 0-2 2v28.356q0 2 2 2z" fill="#fff" opacity=".8" stroke="#ccc" id="patch_7"/><path d="M66.6 54.57h20" fill="none" stroke="#1f77b4" stroke-linecap="square" stroke-width="1.5" id="line2d_15"/><text x="94.6" y="58.07" font-family="DejaVu Sans" font-size="10" font-weight="400" id="text_16">sqrt(x)</text><path d="M66.6 69.249h20" fill="none" stroke="#ff7f0e" stroke-linecap="square" stroke-width="1.5" id="line2d_17"/><text x="94.6" y="72.749" font-family="DejaVu Sans" font-size="10" font-weight="400" id="text_17">Simulated Mean of sqrt(x)</text></g></g></g><defs><clipPath id="p448324963e"><path d="M57.6 41.472h357.12v266.112H57.6z"/></clipPath></defs></svg>
